X: 1
T: Major Manson's Farewell to Clachantrushal
C: PM D. MacLean
N: Composed when a POW during the 1939 - 45 War
M: 2/4
% Q: 1/4 = 70
R: March
L: 1/8
K: HP
\
|: {g}A/>B/ | {GdG}c2 {gBd}B{e}A/>{d}c/ | {gef}e{g}A/>B/ {gcd}ca/>f/ |
{gef}e{g}A/>{d}c/ {g}f/>e/{g}c/<{d}A/ | {g}c/<e/a/>c/ {gdB}B{g}A/>B/ |
\
| {GdG}c2 {gBd}B{e}A/>{d}c/ | {gef}e{g}A/>B/ {gcd}c{g}B/<{d}A/ |
{g}c/<e/a/>f/ {gef}e/>c/{g}B/<{d}c/ | {g}c<{G}A {GAG}A :|
